X: 578
T:Bashaw of Bedford
M:4/4
L:1/8
C:Chas Blacker
R:Reel
N:Bashaw: Turkish var. of Pasha. One of high rank or who organises a bash
N:Posted to the woodenflute mailing list September 2002
Z:Chas Blacker
K:G aeolian
G2dG dedG|AB^cd edcA|G2dG dedg|^fd^cd edcA|G2dG dedG|
AB^cd edcA|G2dG dedg|^fd^cd edef|]
gaba gd^cd|ed^cd Adcd|g2ba gd^cA|BAG^F ~G3d|gaba gd^cd|
ed^cd Ad^Fd|g2bagd^cA|BAG^F G2G2|]

